assets/Man rowing boat/Light/Flat/man_rowing_boat_flat_light.svg

<svg width="32" height="32" viewBox="0 0 32 32" fill="none" xmlns="http://www.w3.org/2000/svg">
<path d="M14.74 6.62073L13.54 7.90073L14.84 9.13073L16.04 7.83073L14.74 6.62073Z" fill="#F4C6AD"/>
<path d="M12.5501 8.10076C12.8101 7.92076 13.2301 7.72076 13.7201 7.78076C14.9601 7.95076 15.2501 8.74076 15.2501 8.74076C15.2501 8.74076 15.6701 9.71076 14.5701 10.9608C14.5601 10.9608 13.8101 12.2008 13.5801 13.8208H11.3081L9.6001 12.6508C10.3801 9.98076 12.1801 8.25076 12.5501 8.10076Z" fill="#00A6ED"/>
<path d="M15.4 14.5408L14.24 16.9008C13.99 17.4308 13.32 17.6108 12.84 17.2708L10.41 15.5608C10.41 15.5608 9.37998 14.7808 9.35998 14.0608C9.33998 13.3408 9.59998 12.6508 9.59998 12.6508L13.53 13.8008" fill="#9B9B9B"/>
<path d="M16.4763 4.01411L17.3463 4.26411C18.0763 4.47411 18.5063 5.24411 18.2963 5.98411L18.1863 6.35411C18.1563 6.47411 18.1463 6.59411 18.1863 6.71411C18.2763 7.06411 18.3563 7.12411 18.3163 7.27411C18.2663 7.51411 18.0263 7.50411 17.9163 7.49411C17.8863 7.49411 17.8563 7.50411 17.8463 7.54411C17.5863 8.36411 17.2663 8.91411 16.2763 8.63411C15.6763 8.46411 14.8063 7.88411 14.7363 7.09411L14.7563 6.06411L14.7463 4.97411C14.9763 4.23411 15.7463 3.80411 16.4763 4.01411Z" fill="#FFD7C2"/>
<path d="M17.7463 6.64413C17.7963 6.65413 17.8563 6.62413 17.8763 6.56413C17.8763 6.56413 17.8763 6.56413 17.8763 6.55413C17.9463 6.31413 17.7763 6.11413 17.5763 6.05413C17.3763 5.99413 17.1263 6.07413 17.0563 6.31413C17.0563 6.31413 17.0563 6.31413 17.0563 6.32413C17.0363 6.38413 17.0663 6.44413 17.1163 6.46413L17.7463 6.64413Z" fill="white"/>
<path d="M17.8262 6.66408C17.8462 6.63408 17.8662 6.59408 17.8762 6.55408C17.9262 6.37408 17.8562 6.20408 17.7162 6.16408C17.5762 6.12408 17.4162 6.23408 17.3662 6.41408C17.3562 6.45408 17.3462 6.49408 17.3462 6.53408L17.8262 6.66408Z" fill="#7D4533"/>
<path d="M17.7463 6.64412C17.7763 6.61412 17.7963 6.58413 17.8063 6.53413C17.8363 6.43413 17.7963 6.33413 17.7163 6.30413C17.6363 6.28413 17.5463 6.34412 17.5163 6.44412C17.5063 6.48412 17.5063 6.53413 17.5163 6.56413L17.7463 6.64412Z" fill="black"/>
<path d="M17.8331 6.39143C17.8337 6.35278 17.8072 6.32107 17.7741 6.32062C17.741 6.32017 17.7137 6.35114 17.7131 6.3898C17.7126 6.42846 17.7391 6.46016 17.7722 6.46061C17.8053 6.46106 17.8326 6.43009 17.8331 6.39143Z" fill="white"/>
<path d="M17.0222 7.28128C17.0735 7.27905 17.1168 7.3188 17.1191 7.37006C17.1268 7.54751 17.2722 7.67911 17.4522 7.67128C17.5035 7.66905 17.5468 7.7088 17.5491 7.76006C17.5513 7.81131 17.5115 7.85467 17.4603 7.8569C17.1803 7.86908 16.9457 7.66067 16.9334 7.37813C16.9312 7.32687 16.971 7.28351 17.0222 7.28128Z" fill="#990838"/>
<path d="M17.8952 5.94862C17.872 5.94867 17.8489 5.94426 17.8272 5.93562C17.673 5.86908 17.5003 5.85882 17.3392 5.90662C17.2957 5.92306 17.2475 5.9218 17.2049 5.90311C17.1622 5.88442 17.1286 5.84978 17.1112 5.80662C17.0949 5.76336 17.0962 5.71541 17.1149 5.67311C17.1336 5.63082 17.1682 5.59759 17.2112 5.58062C17.457 5.49905 17.7241 5.51008 17.9622 5.61162C18.0001 5.62703 18.0314 5.65513 18.0508 5.6911C18.0702 5.72706 18.0764 5.76866 18.0685 5.80874C18.0606 5.84883 18.039 5.88491 18.0074 5.9108C17.9757 5.93668 17.9361 5.95076 17.8952 5.95062V5.94862Z" fill="#212121"/>
<path d="M15.5663 3.12411C14.9863 3.09411 14.5563 3.50411 14.3963 4.02411C14.3963 4.02411 14.2663 4.44411 14.2163 4.83411C14.1988 5.01716 14.189 5.20782 14.1801 5.37958C14.1788 5.40486 14.1776 5.42973 14.1763 5.45411C14.1763 5.66411 14.1963 5.95411 14.2663 6.15411C14.3263 6.33411 14.5163 6.54411 14.7263 6.63411C14.9069 6.7115 15.2723 6.67058 15.422 6.44774C15.3214 6.31854 15.2761 6.14859 15.3164 5.97414C15.3727 5.73259 15.5847 5.56235 15.8217 5.54172C15.8614 5.53268 15.9039 5.5328 15.9463 5.54411L15.9533 5.54585C15.9676 5.54803 15.982 5.55078 15.9964 5.55414L15.9958 5.5565L16.0263 5.56411C16.1963 5.60411 16.3663 5.49411 16.4063 5.32411C16.4563 5.10411 16.6663 4.97411 16.8763 5.02411L18.3363 5.35411C18.3463 5.36411 18.3563 5.36411 18.3663 5.36411C18.6863 5.41411 18.9963 5.20411 19.0863 4.89411C19.1863 4.53411 18.9663 4.16411 18.6063 4.07411C18.5063 4.05411 18.4163 3.97411 18.3763 3.87411C18.2863 3.67411 18.1163 3.50411 17.8863 3.45411C17.7963 3.43411 17.7063 3.43411 17.6163 3.44411C17.3763 3.48411 17.1363 3.42411 16.9363 3.28411C16.8663 3.23411 16.7763 3.19411 16.6863 3.17411C16.5663 3.14411 16.4463 3.15411 16.3363 3.18411C16.1763 3.22411 16.0163 3.22411 15.8563 3.17411C15.7663 3.14411 15.6663 3.13411 15.5663 3.12411Z" fill="#212121"/>
<path d="M26.9401 16.5907L16.4165 15.5942L5.59009 16.5907L10.4301 24.6307H26.9801L26.9401 16.5907Z" fill="#86D72F"/>
<path d="M26.81 14.4507H5.01995C4.42995 14.4507 3.94995 14.9307 3.94995 15.5207C3.94995 16.1107 4.42995 16.5907 5.01995 16.5907H26.82C27.41 16.5907 27.89 16.1107 27.89 15.5207C27.88 14.9307 27.4 14.4507 26.81 14.4507Z" fill="#44911B"/>
<path d="M21.13 11.6207C21.06 11.4607 20.88 11.3907 20.73 11.4607L19.99 11.7707L20.23 12.3407L20.97 12.0307C21.12 11.9607 21.2 11.7807 21.13 11.6207Z" fill="#F1B99B"/>
<path d="M30 19.4707C28.25 19.4707 28.25 20.5107 26.5 20.5107C24.75 20.5107 24.75 19.4707 23 19.4707C21.25 19.4707 21.25 20.5107 19.5 20.5107C17.75 20.5107 17.75 19.4707 16 19.4707C14.25 19.4707 14.25 20.5107 12.5 20.5107C10.75 20.5107 10.75 19.4707 9 19.4707C7.25 19.4707 7.25 20.5107 5.5 20.5107C3.75 20.5107 3.75 19.4707 2 19.4707V28.9707H29.97L30 19.4707Z" fill="#0084CE"/>
<path d="M21.3301 11.1408C21.5701 10.9108 21.9501 10.9108 22.1801 11.1408C22.4101 11.3708 22.4101 11.7508 22.1801 11.9908L14.3954 19.7755C14.7398 20.4733 14.6214 21.3415 14.0401 21.9308L11.6001 24.3708C10.8701 25.1008 9.68009 25.1008 8.95009 24.3708C8.22009 23.6408 8.22009 22.4508 8.95009 21.7208L11.3901 19.2808C11.9715 18.6993 12.8448 18.581 13.545 18.9258L21.3301 11.1408Z" fill="#F3C07B"/>
<path d="M30 23.0807C28.25 23.0807 28.25 24.1207 26.5 24.1207C24.75 24.1207 24.75 23.0807 23 23.0807C21.25 23.0807 21.25 24.1207 19.5 24.1207C17.75 24.1207 17.75 23.0807 16 23.0807C14.25 23.0807 14.25 24.1207 12.5 24.1207C10.75 24.1207 10.75 23.0807 9 23.0807C7.25 23.0807 7.25 24.1207 5.5 24.1207C3.75 24.1207 3.75 23.0807 2 23.0807V28.9807H29.97L30 23.0807Z" fill="#26C9FC"/>
<path d="M21.83 12.6207C21.83 12.1407 21.44 11.7507 20.96 11.7507L17.15 11.7707C16.94 11.7707 16.74 11.6607 16.63 11.4807L16.62 11.4607L15.21 9.20068L13.73 10.1107L15.13 12.3707C15.24 12.5607 15.38 12.7307 15.54 12.8807C15.98 13.2907 16.56 13.5207 17.18 13.5107L20.96 13.4907C21.44 13.4907 21.83 13.1007 21.83 12.6207Z" fill="#FFD7C2"/>
<path d="M13.4201 8.39077C12.9201 8.70077 12.7701 9.36077 13.0801 9.87077L13.9201 11.2308C14.1101 11.5508 14.5301 11.6508 14.8501 11.4508L16.1301 10.6508L15.0201 8.71077C14.7201 8.18077 14.0301 8.01077 13.5201 8.33077L13.4201 8.39077Z" fill="#3BC6F6"/>
</svg>

<svg xmlns="http://www.w3.org/2000/svg" width="32" height="32" fill="none"><path fill="#F4C6AD" d="m14.74 6.62-1.2 1.28 1.3 1.23 1.2-1.3-1.3-1.21Z"/><path fill="#00A6ED" d="M12.55 8.1c.26-.18.68-.38 1.17-.32 1.24.17 1.53.96 1.53.96s.42.97-.68 2.22c-.01 0-.76 1.24-.99 2.86h-2.272L9.6 12.65c.78-2.67 2.58-4.4 2.95-4.55Z"/><path fill="#9B9B9B" d="m15.4 14.54-1.16 2.36c-.25.53-.92.71-1.4.37l-2.43-1.71s-1.03-.78-1.05-1.5c-.02-.72.24-1.41.24-1.41l3.93 1.15"/><path fill="#FFD7C2" d="m16.476 4.014.87.25c.73.21 1.16.98.95 1.72l-.11.37a.63.63 0 0 0 0 .36c.09.35.17.41.13.56-.05.24-.29.23-.4.22-.03 0-.06.01-.07.05-.26.82-.58 1.37-1.57 1.09-.6-.17-1.47-.75-1.54-1.54l.02-1.03-.01-1.09c.23-.74 1-1.17 1.73-.96Z"/><path fill="#fff" d="M17.746 6.644c.05.01.11-.02.13-.08v-.01c.07-.24-.1-.44-.3-.5-.2-.06-.45.02-.52.26v.01c-.02.06.01.12.06.14l.63.18Z"/><path fill="#7D4533" d="M17.826 6.664a.37.37 0 0 0 .05-.11c.05-.18-.02-.35-.16-.39-.14-.04-.3.07-.35.25-.01.04-.02.08-.02.12l.48.13Z"/><path fill="#000" d="M17.746 6.644c.03-.03.05-.06.06-.11.03-.1-.01-.2-.09-.23-.08-.02-.17.04-.2.14-.01.04-.01.09 0 .12l.23.08Z"/><path fill="#fff" d="M17.833 6.391c0-.038-.026-.07-.059-.07s-.06.03-.06.069c-.001.038.025.07.058.07.033.001.06-.03.061-.069Z"/><path fill="#990838" d="M17.022 7.281a.093.093 0 0 1 .097.09c.008.177.153.308.333.3a.093.093 0 0 1 .008.186.499.499 0 0 1-.527-.479.093.093 0 0 1 .09-.097Z"/><path fill="#212121" d="M17.895 5.949a.183.183 0 0 1-.068-.013.717.717 0 0 0-.488-.03.178.178 0 0 1-.228-.1.176.176 0 0 1 .1-.225c.246-.082.513-.07.751.03a.176.176 0 0 1-.067.34v-.002Z"/><path fill="#212121" d="M15.566 3.124c-.58-.03-1.01.38-1.17.9 0 0-.13.42-.18.81-.017.183-.027.374-.036.546l-.004.074c0 .21.02.5.09.7.06.18.25.39.46.48.18.077.546.037.696-.186a.56.56 0 0 1 .4-.906.259.259 0 0 1 .124.002l.007.002a.564.564 0 0 1 .043.008v.002l.03.008c.17.04.34-.07.38-.24a.39.39 0 0 1 .47-.3l1.46.33c.01.01.02.01.03.01.32.05.63-.16.72-.47.1-.36-.12-.73-.48-.82a.33.33 0 0 1-.23-.2.716.716 0 0 0-.49-.42.817.817 0 0 0-.27-.01.917.917 0 0 1-.68-.16.707.707 0 0 0-.6-.1.87.87 0 0 1-.48-.01c-.09-.03-.19-.04-.29-.05Z"/><path fill="#86D72F" d="m26.94 16.59-10.524-.996-10.826.997 4.84 8.04h16.55l-.04-8.04Z"/><path fill="#44911B" d="M26.81 14.45H5.02a1.071 1.071 0 0 0 0 2.14h21.8c.59 0 1.07-.48 1.07-1.07-.01-.59-.49-1.07-1.08-1.07Z"/><path fill="#F1B99B" d="M21.13 11.62a.3.3 0 0 0-.4-.16l-.74.31.24.57.74-.31c.15-.07.23-.25.16-.41Z"/><path fill="#0084CE" d="M30 19.47c-1.75 0-1.75 1.04-3.5 1.04s-1.75-1.04-3.5-1.04-1.75 1.04-3.5 1.04-1.75-1.04-3.5-1.04-1.75 1.04-3.5 1.04-1.75-1.04-3.5-1.04-1.75 1.04-3.5 1.04-1.75-1.04-3.5-1.04v9.5h27.97l.03-9.5Z"/><path fill="#F3C07B" d="M21.33 11.14a.61.61 0 0 1 .85 0c.23.23.23.61 0 .85l-7.785 7.786a1.883 1.883 0 0 1-.355 2.155l-2.44 2.44c-.73.73-1.92.73-2.65 0s-.73-1.92 0-2.65l2.44-2.44a1.878 1.878 0 0 1 2.155-.355l7.785-7.785Z"/><path fill="#26C9FC" d="M30 23.08c-1.75 0-1.75 1.04-3.5 1.04s-1.75-1.04-3.5-1.04-1.75 1.04-3.5 1.04-1.75-1.04-3.5-1.04-1.75 1.04-3.5 1.04-1.75-1.04-3.5-1.04-1.75 1.04-3.5 1.04-1.75-1.04-3.5-1.04v5.9h27.97l.03-5.9Z"/><path fill="#FFD7C2" d="M21.83 12.62a.87.87 0 0 0-.87-.87l-3.81.02c-.21 0-.41-.11-.52-.29l-.01-.02-1.41-2.26-1.48.91 1.4 2.26a2.339 2.339 0 0 0 2.05 1.14l3.78-.02c.48 0 .87-.39.87-.87Z"/><path fill="#3BC6F6" d="M13.42 8.39c-.5.31-.65.97-.34 1.48l.84 1.36c.19.32.61.42.93.22l1.28-.8-1.11-1.94c-.3-.53-.99-.7-1.5-.38l-.1.06Z"/></svg>
